suite-common/icons/cryptoAssets/cryptoIcons/arb.svg

<svg viewBox="0 0 32 32" fill="none" xmlns="http://www.w3.org/2000/svg">
<g clip-path="url(#clip0_1449_94)">
<path d="M16 32C24.8366 32 32 24.8366 32 16C32 7.16344 24.8366 0 16 0C7.16344 0 0 7.16344 0 16C0 24.8366 7.16344 32 16 32Z" fill="#213147"/>
<path d="M6.16956 11.3057V20.7137C6.16956 21.3185 6.48656 21.8657 7.01456 22.1729L15.1646 26.8769C15.6836 27.1745 16.3266 27.1745 16.8446 26.8769L24.9956 22.1729C25.5136 21.8753 25.8396 21.3185 25.8396 20.7137V11.3057C25.8396 10.7009 25.5236 10.1537 24.9956 9.84647L16.8446 5.14247C16.3266 4.84487 15.6836 4.84487 15.1646 5.14247L7.01456 9.84647C6.49556 10.1441 6.17955 10.7009 6.17955 11.3057H6.16956Z" fill="#213147"/>
<path d="M17.7756 17.8335L16.6146 21.0207C16.5856 21.1071 16.5856 21.2031 16.6146 21.2991L18.6106 26.7807L20.9246 25.4463L18.1506 17.8335C18.0826 17.6607 17.8426 17.6607 17.7756 17.8335Z" fill="#12AAFF"/>
<path d="M20.1086 12.4766C20.0416 12.3038 19.8016 12.3038 19.7346 12.4766L18.5726 15.6638C18.5436 15.7502 18.5436 15.8462 18.5726 15.9422L21.8466 24.9182L24.1596 23.5838L20.1086 12.4862V12.4766Z" fill="#12AAFF"/>
<path d="M15.9995 5.4976C16.0575 5.4976 16.1155 5.51679 16.1635 5.54559L24.9755 10.6336C25.0815 10.6912 25.1395 10.8064 25.1395 10.9216V21.0976C25.1395 21.2128 25.0715 21.328 24.9755 21.3856L16.1635 26.4736C16.1155 26.5024 16.0575 26.5216 15.9995 26.5216C15.9425 26.5216 15.8845 26.5024 15.8365 26.4736L7.02353 21.3856C6.91853 21.328 6.86052 21.2128 6.86052 21.0976V10.912C6.86052 10.7968 6.92753 10.6816 7.02353 10.624L15.8365 5.536C15.8845 5.5072 15.9425 5.488 15.9995 5.488V5.4976ZM15.9995 4.0096C15.6835 4.0096 15.3755 4.0864 15.0875 4.2496L6.27553 9.33759C5.70853 9.66399 5.36353 10.2592 5.36353 10.912V21.088C5.36353 21.7408 5.70853 22.336 6.27553 22.6624L15.0875 27.7504C15.3665 27.9136 15.6835 27.9904 15.9995 27.9904C16.3165 27.9904 16.6235 27.9136 16.9115 27.7504L25.7245 22.6624C26.2915 22.336 26.6365 21.7408 26.6365 21.088V10.912C26.6365 10.2592 26.2915 9.66399 25.7245 9.33759L16.9025 4.2496C16.6235 4.0864 16.3075 4.0096 15.9905 4.0096H15.9995Z" fill="#9DCCED"/>
<path d="M10.1635 24.9277L10.9795 22.7005L12.6115 24.0541L11.0845 25.4557L10.1635 24.9277Z" fill="#213147"/>
<path d="M15.2505 10.192H13.0146C12.8506 10.192 12.6976 10.2976 12.6396 10.4512L7.84955 23.584L10.1626 24.9184L15.4426 10.4512C15.4906 10.3168 15.3946 10.1824 15.2606 10.1824L15.2505 10.192Z" fill="white"/>
<path d="M19.1675 10.192H16.9315C16.7675 10.192 16.6145 10.2976 16.5565 10.4512L11.0845 25.4464L13.3985 26.7808L19.3505 10.4512C19.3985 10.3168 19.3025 10.1824 19.1675 10.1824V10.192Z" fill="white"/>
</g>
<defs>
<clipPath id="clip0_1449_94">
<rect width="32" height="32" rx="16" fill="white"/>
</clipPath>
</defs>
</svg>

<svg xmlns="http://www.w3.org/2000/svg" fill="none" viewBox="0 0 32 32">
  <g clip-path="url(#prefix__a)">
    <path fill="#213147" d="M16 32c8.837 0 16-7.163 16-16S24.837 0 16 0 0 7.163 0 16s7.163 16 16 16"/>
    <path fill="#213147" d="M6.17 11.306v9.408c0 .605.317 1.152.845 1.459l8.15 4.704a1.69 1.69 0 0 0 1.68 0l8.15-4.704c.519-.298.845-.854.845-1.46v-9.407c0-.605-.316-1.152-.844-1.46l-8.151-4.704a1.69 1.69 0 0 0-1.68 0l-8.15 4.704a1.68 1.68 0 0 0-.835 1.46z"/>
    <path fill="#12AAFF" d="m17.776 17.834-1.161 3.187a.46.46 0 0 0 0 .278l1.996 5.482 2.314-1.335-2.774-7.613a.2.2 0 0 0-.375 0m2.333-5.356a.2.2 0 0 0-.374 0l-1.162 3.187a.46.46 0 0 0 0 .278l3.274 8.976 2.313-1.334-4.051-11.098z"/>
    <path fill="#9DCCED" d="M16 5.498c.058 0 .116.019.163.048l8.813 5.088a.33.33 0 0 1 .164.288v10.176a.35.35 0 0 1-.165.288l-8.812 5.088a.3.3 0 0 1-.164.048.3.3 0 0 1-.163-.048l-8.812-5.088a.33.33 0 0 1-.163-.288V10.912c0-.115.067-.23.163-.288l8.813-5.088a.3.3 0 0 1 .162-.048zm0-1.488a1.8 1.8 0 0 0-.912.24L6.276 9.338a1.81 1.81 0 0 0-.912 1.574v10.176c0 .653.345 1.248.912 1.574l8.812 5.088c.279.164.596.24.912.24s.624-.076.912-.24l8.813-5.088a1.81 1.81 0 0 0 .912-1.574V10.912a1.81 1.81 0 0 0-.913-1.574l-8.82-5.088a1.8 1.8 0 0 0-.912-.24z"/>
    <path fill="#213147" d="m10.164 24.928.816-2.227 1.631 1.353-1.527 1.402z"/>
    <path fill="#fff" d="M15.25 10.192h-2.235a.41.41 0 0 0-.375.26L7.85 23.583l2.313 1.334 5.28-14.467a.198.198 0 0 0-.182-.269zm3.918 0h-2.236a.41.41 0 0 0-.375.26l-5.472 14.994 2.313 1.335 5.953-16.33a.198.198 0 0 0-.183-.269z"/>
  </g>
  <defs>
    <clipPath id="prefix__a">
      <rect width="32" height="32" fill="#fff" rx="16"/>
    </clipPath>
  </defs>
</svg>
